X: 61
T: Bogu dusza ufa moja,
C: Mikołaj Gomółka
%%abc-version 2.0
%%abcx-abcm2ps-target-version 5.9.1 (29 Sep 2008)
%%abc-creator hum2abc beta
%%abcx-conversion-date 2021/10/04 07:59:09
%%abc-edited-by Marta Lawrence
%%abcx-initial-encoding-date 2020-02-10
%%humdrum-veritas 835395874
%%humdrum-veritas-data 335803822
%%linebreak <none>
%%barnumbers 0
L: 1/4
M: C|
N: Derived from pl-wn--sd-xvi-qu-273--062_gomolka-mikolaj--bogu-dusza-ufa-moja.krn
%%staves [1 2 3 4]
V: 1
V: 2 clef=alto
V: 3 clef=alto
V: 4 clef=bass
K: F
[V:1] G4F2G2 [|] 
[V:2] D4D2D2 [|] 
[V:3] B,4A,2B,2 [|] 
[V:4] G,4D,2G,2 [|] 
[V:1] A2>B2c2B4 [|] 
[V:2] F4G2F2 [|] 
[V:3] C2>D2EDDC/B,/ [|] 
[V:4] F,4C,2D,2 [|] 
[V:1] A2B4 :|]  
[V:2] _E2DCD4 :|]  
[V:3] C4B,4 :|]  
[V:4] E,2F,2B,,4 :|]  
[V:1] F4G2B2 [|] 
[V:2] D4D2G2 [|] 
[V:3] A,4B,A,B,C [|] 
[V:4] D,4B,,2G,,2 [|] 
[V:1] A2>G2F2ED [|] 
[V:2] F2F,G,A,2G,F, [|] 
[V:3] D4C2B,A, [|] 
[V:4] D,2>E,2F,2B,,2 [|] 
[V:1] CD2CD2A2 [|] 
[V:2] G,A,G,2F,2D2 [|] 
[V:3] G,F,G,2A,2F,2 [|] 
[V:4] E,4D,2D,2 [|] 
[V:1] B2A2G2F_E [|] 
[V:2] D2D2_E2E2 [|] 
[V:3] G,2A,2B,2C2 [|] 
[V:4] G,2F,2E,2C,2 [|] 
[V:1] FG2FG32 |]  
[V:2] D2>C2=B,32 |]  
[V:3] A,2A,2G,32 |]  
[V:4] D,2D,2G,,32 |]  


